assets/icons/24px/outline/arrow-circle-forward-fiveteen-24px.svg

<svg width="24" height="24" viewBox="0 0 24 24" fill="none" xmlns="http://www.w3.org/2000/svg">
<path d="M19.8778 13.2857C19.8778 17.5462 16.9183 21 12.5 21C8.08172 21 4.5 17.9415 4.5 13.2857C4.5 8.62985 8.08172 5.57136 12.5 5.57136L19.5 5.57137M19.5 5.57137L16.8334 3M19.5 5.57137L16.8334 8.14288" stroke="white" stroke-width="2" stroke-linecap="round" stroke-linejoin="round"/>
<path d="M9.875 16.5V10.5L8.5 12M15.875 10.5H12.6302L12.0052 13.6431C12.6302 13.2621 12.7846 13 14 13C15.2154 13 15.875 13.5 15.875 15C15.875 16.5 14.5052 16.5 14 16.5C13.4948 16.5 12 16.5 12 15.5" stroke="white" stroke-linecap="round" stroke-linejoin="round"/>
</svg>

<svg width="24" height="24" fill="none" xmlns="http://www.w3.org/2000/svg"><path d="M19.878 13.286c0 4.26-2.96 7.714-7.378 7.714s-8-3.058-8-7.714c0-4.656 3.582-7.715 8-7.715h7m0 0L16.833 3M19.5 5.571l-2.667 2.572" stroke="#fff" stroke-width="2" stroke-linecap="round" stroke-linejoin="round"/><path d="M9.875 16.5v-6L8.5 12m7.375-1.5H12.63l-.625 3.143c.625-.38.78-.643 1.995-.643s1.875.5 1.875 2-1.37 1.5-1.875 1.5c-.505 0-2 0-2-1" stroke="#fff" stroke-linecap="round" stroke-linejoin="round"/></svg>
